storage/app/icons/phosphoricons/bold/hard-hat-bold.svg

<svg xmlns="http://www.w3.org/2000/svg" fill="currentColor" viewBox="0 0 256 256"><path d="M228 148.4V136a100.41 100.41 0 0 0-64-93.3V40a20 20 0 0 0-20-20h-32a20 20 0 0 0-20 20v2.7A100.41 100.41 0 0 0 28 136v12.4A20 20 0 0 0 12 168v24a20 20 0 0 0 20 20h192a20 20 0 0 0 20-20v-24a20 20 0 0 0-16-19.6M204 136v12h-40V69.07A76.35 76.35 0 0 1 204 136m-64-92v104h-24V44ZM92 69.07V148H52v-12a76.35 76.35 0 0 1 40-66.93M220 188H36v-16h184Z"/></svg>

<svg xmlns="http://www.w3.org/2000/svg" viewBox="0 0 256 256" fill="currentColor"><path d="M228,148.4V136a100.41,100.41,0,0,0-64-93.3V40a20,20,0,0,0-20-20H112A20,20,0,0,0,92,40v2.7A100.41,100.41,0,0,0,28,136v12.4A20,20,0,0,0,12,168v24a20,20,0,0,0,20,20H224a20,20,0,0,0,20-20V168A20,20,0,0,0,228,148.4ZM204,136v12H164V69.07A76.35,76.35,0,0,1,204,136ZM140,44V148H116V44ZM92,69.07V148H52V136A76.35,76.35,0,0,1,92,69.07ZM220,188H36V172H220Z"/></svg>
